X:1
T:Horsu levianci
T:Giovanni Animuccia
T:Source : Secondo libro delle Laude spirituali a tre et a quattro voci---Roma---A.Gardano---1583. Editor : André Vierendeels (30/11/17). Notes : Original clefs : C1, C2, C3 Editorial accidentals above the staff Original note values have been halved Dotted brackets indicate black notes Music compiled by Francisco Soto de Langa 
T:Horsu levianci
T:©
T:©
C:Giovanni Animuccia
Z:©
%%score [ 1 2 3 ]
L:1/8
Q:1/4=120
M:3/4
K:F
V:1 treble nm="Soprano" snm="S"
V:2 treble nm="Alto" snm="A"
V:3 treble-8 nm="Tenor" snm="T"
V:1
"^1)" F2 A2 A2 | A4 B2 | c4 c2 | d2 c2 B2 | A4 B2 | G4 G2 :: A2 A2 A2 | F4 G2 | E4 E2 | c2 A2 B2 | %10
w: Hor- su le-|vian- ci,|su le-|vian- * ci|dal- le|piu- me,|et col di-|vi- no|lu- me|gi- mo'a- tro-|
w: Gia vie- ne'il|gran si-|gno- re;|su gi- mo'a|rin- con-|tral- lo,|con suo- no'et|can- to'et|bal- lo'et|giu- bi- lan-|
 c4 B2 | G4 A2 | c2 A2 B2 | c2 B4 | A2 GF G2 | A4 !fermata!A2 :| %16
w: var Gie-|su, gi-|mo'a- tro- *|var Gie-|* * * su,|Gie- su.|
w: te co-|re, giu-|bi- lan- *|te co-||* re.|
V:2
"^2)""^1)" C2 F2 F2 |"^-natural" F4 ^F2 | G4 G2 | D2 E2 G2 | F4 G2 | E4 E2 :: F2 F2 E2 | D4 D2 | %8
w: Hor- su le-|vian- ci,|su le-|vian- * ci|dal- le|piu- me,|et col di-|vi- no|
w: Vien hu- mil|co- ne'A-|gnel- lo|ch'es- ca ne'i|pri- mi'al-|bo- ri,|a car- pir|l'her- ba'e'i|
 C4 C2 | z2 F2 D2 | E2 F3 D | E4 F2 | A2 F2 G2 | A4 G2 | F3 E/D/ E2 | F4 !fermata!F2 :| %16
w: lu- me|gi- mo'a-|tro- var Gie-|su, gi-|mo, gi- mo'a-|tro- *|* * * var|Gie- su.|
w: fio- ri|d'un ver-|de pra- ti-|cel- lo,|d'un ver- de|pra- ti-|cel- * * *|* lo.|
V:3
"^3)""^1)""^4)" F2 F2 f2 | d4 d2 | c4 c2 | B2 A2 G2 | d4 B2 | c4 c2 :: F2 F2 A2 | B4 G2 | A4 A2 | %9
w: Hor- su le-|vian- ci,|su le-|vian- * ci|dal- le|piu- me,|et col di-|vi- no|lu- me|
w: Et vien co-|me gi-|gnan- te'al-|te- * ro't|pel- le-|gri- no,|che po- sto-|s'in ca-|mi- no,|
 z6 | c2 A2 B2 | c4 F2 | F2 F2 z2 | f2 d2 e2 | f2 c4 | F4 !fermata!F2 :| %16
w: |gi- mo'a- tro-|* var|Gie- su,|gi- mo'a- tro-|* var|Gie- su.|
w: |mo- ve l'ar-|di- te|pian- te,|mo- ve l'ar-|di- te|pian- ti.|

